assets/fc/fc-home.svg

<svg xmlns="http://www.w3.org/2000/svg" width="100%" height="100%" viewBox="0 0 48 48"><path fill="#E8EAF6" d="M42 39H6V23L24 6l18 17z"/><g fill="#C5CAE9"><path d="M39 21l-5-5V9h5zM6 39h36v5H6z"/></g><path fill="#B71C1C" d="M24 4.3L4 22.9l2 2.2L24 8.4l18 16.7 2-2.2z"/><path fill="#D84315" d="M18 28h12v16H18z"/><path fill="#01579B" d="M21 17h6v6h-6z"/><path fill="#FF8A65" d="M27.5 35.5c-.3 0-.5.2-.5.5v2c0 .3.2.5.5.5s.5-.2.5-.5v-2c0-.3-.2-.5-.5-.5z"/></svg>

<svg xmlns="http://www.w3.org/2000/svg" width="100%" height="100%" viewBox="0 0 48 48"><path fill="#E8EAF6" d="M42 39L6 39 6 23 24 6 42 23z"/><g fill="#C5CAE9"><path d="M39 21L34 16 34 9 39 9zM6 39H42V44H6z"/></g><path fill="#B71C1C" d="M24 4.3L4 22.9 6 25.1 24 8.4 42 25.1 44 22.9z"/><path fill="#D84315" d="M18 28H30V44H18z"/><path fill="#01579B" d="M21 17H27V23H21z"/><path fill="#FF8A65" d="M27.5,35.5c-0.3,0-0.5,0.2-0.5,0.5v2c0,0.3,0.2,0.5,0.5,0.5S28,38.3,28,38v-2C28,35.7,27.8,35.5,27.5,35.5z"/></svg>
